X:1
T: Dunmanway Lasses
C:
R:Jig
Q:180
K:G
M:6/8
L:1/16
D2|G2F2G2 d2B2G2|B2A2B2 d2B2G2|G2F2G2 d2B2G2|G2A2G2 G2E2C2|G2F2G2 d2B2G2|B2A2B2 d2B2G2|G2B2G2 B4A2|G2E2E2 E4D2|
G2F2G2 d2B2G2|B2A2B2 d2B2G2|G2F2G2 d2B2G2|G2A2G2 G2E2C2|G2F2G2 d2B2G2|B2A2B2 d2B2G2|G2B2G2 B4A2|G2E2E2 E4d2|
g2f2g2 a2g2a2|b2g2e2 e2d2B2|g2f2g2 a2g2a2|b2g2e2 e4ga|b2g2g2 a2g2g2|e2g2e2 d2B2G2|B2A2B2 G2B2A2|G2E2E2 E4d2|
g2f2g2 a2g2a2|b2g2e2 e2d2B2|g2f2g2 a2g2a2|b2g2e2 e4ga|b2g2g2 a2g2g2|e2g2e2 d2B2G2|B2A2B2 G2B2A2|G2E2E2 E4||
